app/assets/images/Contenido/Atrás.svg

<svg fill="none" height="62" viewBox="0 0 62 62" width="62" xmlns="http://www.w3.org/2000/svg"><circle cx="31" cy="31" fill="#9a0505" r="31"/><path d="m50 30.9252c0-.7957-.3246-1.5587-.9025-2.1214-.5778-.5626-1.3616-.8786-2.1788-.8786h-24.4039l8.0935-7.88c.5443-.5687.8406-1.3209.8266-2.0981-.0141-.7772-.3375-1.5188-.9021-2.0684-.5645-.5497-1.3261-.8645-2.1244-.8782s-1.5708.2748-2.155.8047l-13.3523 13c-.577.5625-.9011 1.325-.9011 2.12s.3241 1.5575.9011 2.12l13.3523 13c.2821.2947.6223.5311 1.0003.6951s.786.2521 1.1997.2592.8247-.067 1.2084-.2178c.3836-.1509.7322-.3755 1.0248-.6604s.5232-.6242.6782-.9977c.155-.3736.2311-.7737.2238-1.1765s-.0979-.8001-.2663-1.1681-.4112-.6992-.714-.9738l-8.0935-7.88h24.4039c1.7009 0 3.0813-1.344 3.0813-3z" fill="#fff"/></svg>

<svg width="62" height="62" viewBox="0 0 62 62" fill="none" xmlns="http://www.w3.org/2000/svg">
<circle cx="31" cy="31" r="31" fill="#9A0505"/>
<path d="M50 30.9252C50 30.1295 49.6754 29.3665 49.0975 28.8038C48.5197 28.2412 47.7359 27.9252 46.9187 27.9252L22.5148 27.9252L30.6083 20.0452C31.1526 19.4765 31.4489 18.7243 31.4349 17.9471C31.4208 17.1699 31.0974 16.4283 30.5328 15.8787C29.9683 15.329 29.2067 15.0142 28.4084 15.0005C27.6101 14.9868 26.8376 15.2753 26.2534 15.8052L12.9011 28.8052C12.3241 29.3677 12 30.1302 12 30.9252C12 31.7202 12.3241 32.4827 12.9011 33.0452L26.2534 46.0452C26.5355 46.3399 26.8757 46.5763 27.2537 46.7403C27.6317 46.9043 28.0397 46.9924 28.4534 46.9995C28.8671 47.0066 29.2781 46.9325 29.6618 46.7817C30.0454 46.6308 30.394 46.4062 30.6866 46.1213C30.9792 45.8364 31.2098 45.4971 31.3648 45.1236C31.5198 44.75 31.5959 44.3499 31.5886 43.9471C31.5813 43.5443 31.4907 43.147 31.3223 42.779C31.1539 42.411 30.9111 42.0798 30.6083 41.8052L22.5148 33.9252L46.9187 33.9252C48.6196 33.9252 50 32.5812 50 30.9252Z" fill="white"/>
</svg>
